src/lib/packages/icons/src/assets/line/play.svg

<svg width="24" height="24" viewBox="0 0 24 24" fill="none" xmlns="http://www.w3.org/2000/svg">
<path d="M7.01196 21.753C6.38196 21.753 5.74995 21.5899 5.16895 21.2649C3.96695 20.5919 3.25 19.3689 3.25 17.9939V6.00613C3.25 4.63113 3.96695 3.40913 5.16895 2.73513C6.37495 2.05913 7.79695 2.08713 8.97595 2.80813L19.052 8.97414C20.115 9.62414 20.75 10.756 20.75 12C20.75 13.244 20.115 14.3749 19.052 15.0259L8.97595 21.1919C8.36495 21.5649 7.68896 21.753 7.01196 21.753ZM7.01196 3.75002C6.63196 3.75002 6.25195 3.84797 5.90295 4.04397C5.18095 4.44797 4.75098 5.18213 4.75098 6.00613V17.9939C4.75098 18.8179 5.18195 19.5521 5.90295 19.9561C6.62695 20.3621 7.48299 20.3471 8.19299 19.9131L18.269 13.7471C18.883 13.3711 19.25 12.718 19.25 12C19.25 11.282 18.883 10.629 18.269 10.253L8.19299 4.08694C7.82499 3.86294 7.41896 3.75002 7.01196 3.75002Z" fill="currentColor"/>
</svg>

<svg xmlns="http://www.w3.org/2000/svg" width="24" height="24" fill="none"><path fill="currentColor" d="M7.012 21.753a3.77 3.77 0 0 1-1.843-.488 3.705 3.705 0 0 1-1.919-3.271V6.006c0-1.375.717-2.597 1.919-3.27a3.72 3.72 0 0 1 3.807.072l10.076 6.166A3.524 3.524 0 0 1 20.75 12a3.525 3.525 0 0 1-1.698 3.026L8.976 21.192a3.76 3.76 0 0 1-1.964.561Zm0-18.003c-.38 0-.76.098-1.109.294A2.223 2.223 0 0 0 4.75 6.006v11.988c0 .824.43 1.558 1.152 1.962.724.406 1.58.391 2.29-.043l10.076-6.166A2.036 2.036 0 0 0 19.249 12c0-.718-.367-1.371-.981-1.747L8.193 4.087a2.266 2.266 0 0 0-1.181-.337Z"/></svg>
